X:1
T:Title
%%score { ( 1 3 ) | ( 2 4 5 ) }
L:1/8
Q:1/4=100
M:4/4
K:Eb
V:1 treble nm="Grand Piano"
V:3 treble 
V:2 bass 
V:4 bass 
V:5 bass 
V:1
 [B,GB]>[B,FA] [B,EG][B,FA] [B,GB]2 [B,EG]2 | [EB]2 [Ge]2 [GB]4 | [FA]>[EG] [DF][EG] [FA]2 [DF]2 | %3
w: Robert~Lowry * * * * *|||
 [DA]2 [Dc]2 B4 | G>F EF G2 [A,DF]2 | [G,E]2 [CEA]2 [B,EG]2 [B,FB][Gc] | d2 cB c3 =A | %7
w: ||||
[M:3/4] B4 z2 |[M:1/4] G>B |[M:4/4] e6 z2 | B6 z2 | A6 z2 | B6 z2 | %13
w: ||||||
 [EAc]2 [EAc]2 [EAc]2 [Ece]>[EAc] | [GB][Ac][GB][EG] [GB]2 [GB]>[GB] | .e2 z2 z4 | E6 z2 |] %17
w: ||||
V:2
 E,>E, E,E, E,2 E,2 | [E,G,]2 [E,B,]2 [E,B,]4 | [B,,B,]>[B,,B,] [B,,B,][B,,B,] [B,,B,]2 [B,,B,]2 | %3
 [B,,F,]2 [B,,A,]2 [E,G,E]4 | [E,B,E]>[E,A,D] [E,G,][E,A,E] [E,B,E]2 B,,2 | C,2 A,,2 E,2 D,[E,B,] | %6
 [F,B,F]2 [F,=A,E][F,B,D] [F,A,E]3 [F,CE] |[M:3/4] z2 z2[K:treble] B2 |[M:1/4] E>G | %9
[M:4/4] G6[K:bass][K:treble] z2 | D6[K:bass] z2 | F6[K:treble] z2 | G6[K:bass] z2 | %13
 A,2 A,2 A,2 A,>A, | [E,E][E,E][E,E][E,B,] [E,E]2 [E,E]>[E,E] | %15
 E,-[E,E][K:treble] [A,EA]>[A,CF][K:bass] [B,E]2 [B,,A,]2 | [E,G,]6 z2 |] %17
V:3
 x8 | x8 | x8 | x8 | x8 | x8 | x8 |[M:3/4] [B,D]6 |[M:1/4] x2 |[M:4/4] z2 B,>B, B,2 B>G | %10
 z2 B,>B, B,2 F>G | z2 B,>B, B,2 d>c | z2 E>E E2 [B,EG]>[EGB] | x8 | x8 | G-[GB] c>A G2 [DF]2 | %16
 x8 |] %17
V:4
 x8 | x8 | x8 | x8 | x8 | x8 | x8 |[M:3/4] z2 z2[K:treble] z A |[M:1/4] x2 | %9
[M:4/4] z2[K:bass] E,>E, E,2[K:treble] G>E | z2[K:bass] B,,>B,, B,,2 D>E | %11
 z2 D,>D, D,2[K:treble] B>A | z2[K:bass] E,>E, E,2 E,>E, | x8 | x8 | .B,2[K:treble] z2[K:bass] z4 | %16
 x8 |] %17
V:5
 x8 | x8 | x8 | x8 | x8 | x8 | x8 |[M:3/4] B,,6[K:treble] |[M:1/4] x2 | %9
[M:4/4] x2[K:bass] x4[K:treble] x2 | x2[K:bass] x6 | x6[K:treble] x2 | x2[K:bass] x6 | x8 | x8 | %15
 x2[K:treble] x2[K:bass] x4 | x8 |] %17

